luts/1.CUBE
#Created by www.Photopea.com
TITLE "1.psd"
#LUT size
LUT_3D_SIZE 16
#data domain
DOMAIN_MIN 0.0 0.0 0.0
DOMAIN_MAX 1.0 1.0 1.0
#LUT data points
0.000000 0.000000 0.000000
0.011765 0.000000 0.000000
0.031373 0.000000 0.000000
0.062745 0.000000 0.000000
0.101961 0.000000 0.000000
0.152941 0.000000 0.000000
0.215686 0.000000 0.000000
0.298039 0.000000 0.000000
0.392157 0.000000 0.000000
0.486275 0.000000 0.000000
0.580392 0.000000 0.000000
0.674510 0.000000 0.000000
0.768627 0.000000 0.000000
0.847059 0.000000 0.000000
0.878431 0.000000 0.000000
0.878431 0.000000 0.000000
0.000000 0.011765 0.000000
0.011765 0.011765 0.000000
0.031373 0.011765 0.000000
0.062745 0.011765 0.000000
0.101961 0.011765 0.000000
0.152941 0.011765 0.000000
0.215686 0.011765 0.000000
0.298039 0.011765 0.000000
0.392157 0.011765 0.000000
0.486275 0.003922 0.000000
0.580392 0.011765 0.000000
0.674510 0.003922 0.000000
0.768627 0.003922 0.000000
0.847059 0.011765 0.000000
0.878431 0.011765 0.000000
0.878431 0.003922 0.000000
0.000000 0.019608 0.000000
0.011765 0.019608 0.000000
0.031373 0.019608 0.000000
0.062745 0.019608 0.000000
0.101961 0.019608 0.000000
0.152941 0.019608 0.000000
0.215686 0.019608 0.000000
0.298039 0.019608 0.000000
0.392157 0.019608 0.000000
0.486275 0.019608 0.000000
0.580392 0.019608 0.000000
0.674510 0.019608 0.000000
0.768627 0.019608 0.000000
0.847059 0.019608 0.000000
0.878431 0.019608 0.000000
0.878431 0.019608 0.000000
0.000000 0.043137 0.000000
0.011765 0.043137 0.000000
0.035294 0.043137 0.000000
0.062745 0.043137 0.000000
0.101961 0.043137 0.000000
0.152941 0.043137 0.000000
0.215686 0.043137 0.000000
0.298039 0.043137 0.000000
0.392157 0.043137 0.000000
0.486275 0.043137 0.000000
0.580392 0.035294 0.000000
0.674510 0.043137 0.000000
0.768627 0.035294 0.000000
0.847059 0.035294 0.000000
0.878431 0.043137 0.000000
0.878431 0.043137 0.000000
0.000000 0.074510 0.000000
0.015686 0.074510 0.000000
0.031373 0.074510 0.000000
0.062745 0.074510 0.000000
0.101961 0.070588 0.000000
0.152941 0.074510 0.000000
0.215686 0.070588 0.000000
0.298039 0.070588 0.000000
0.392157 0.070588 0.000000
0.486275 0.070588 0.000000
0.580392 0.074510 0.000000
0.674510 0.070588 0.000000
0.768627 0.070588 0.000000
0.847059 0.074510 0.000000
0.878431 0.070588 0.000000
0.878431 0.070588 0.000000
0.000000 0.109804 0.000000
0.015686 0.109804 0.000000
0.031373 0.109804 0.000000
0.062745 0.109804 0.000000
0.101961 0.109804 0.000000
0.152941 0.105882 0.000000
0.215686 0.105882 0.000000
0.298039 0.105882 0.000000
0.392157 0.105882 0.000000
0.486275 0.105882 0.000000
0.580392 0.105882 0.000000
0.674510 0.105882 0.000000
0.768627 0.105882 0.000000
0.847059 0.105882 0.000000
0.878431 0.105882 0.000000
0.878431 0.109804 0.000000
0.000000 0.156863 0.000000
0.011765 0.156863 0.000000
0.031373 0.156863 0.000000
0.062745 0.156863 0.000000
0.105882 0.156863 0.000000
0.156863 0.156863 0.000000
0.215686 0.156863 0.000000
0.298039 0.156863 0.000000
0.392157 0.164706 0.000000
0.486275 0.156863 0.000000
0.580392 0.152941 0.000000
0.674510 0.156863 0.000000
0.768627 0.156863 0.000000
0.847059 0.149020 0.000000
0.878431 0.156863 0.000000
0.878431 0.164706 0.000000
0.000000 0.223529 0.000000
0.011765 0.223529 0.000000
0.031373 0.223529 0.000000
0.062745 0.223529 0.000000
0.105882 0.223529 0.000000
0.156863 0.223529 0.000000
0.227451 0.223529 0.000000
0.298039 0.215686 0.000000
0.392157 0.223529 0.000000
0.486275 0.223529 0.000000
0.580392 0.211765 0.000000
0.674510 0.223529 0.000000
0.768627 0.211765 0.000000
0.847059 0.207843 0.000000
0.878431 0.215686 0.000000
0.878431 0.207843 0.000000
0.000000 0.298039 0.000000
0.011765 0.298039 0.000000
0.035294 0.298039 0.000000
0.062745 0.298039 0.000000
0.101961 0.298039 0.000000
0.156863 0.298039 0.000000
0.223529 0.298039 0.000000
0.298039 0.298039 0.000000
0.392157 0.294118 0.000000
0.486275 0.290196 0.000000
0.580392 0.298039 0.000000
0.674510 0.298039 0.000000
0.768627 0.294118 0.000000
0.847059 0.298039 0.000000
0.878431 0.294118 0.000000
0.878431 0.278431 0.000000
0.000000 0.392157 0.000000
0.015686 0.392157 0.000000
0.035294 0.392157 0.000000
0.062745 0.392157 0.000000
0.105882 0.392157 0.000000
0.156863 0.392157 0.000000
0.231373 0.392157 0.000000
0.298039 0.392157 0.000000
0.392157 0.392157 0.000000
0.486275 0.380392 0.000000
0.580392 0.388235 0.000000
0.674510 0.364706 0.000000
0.768627 0.392157 0.000000
0.847059 0.372549 0.000000
0.878431 0.380392 0.000000
0.878431 0.364706 0.000000
0.000000 0.486275 0.000000
0.011765 0.486275 0.000000
0.035294 0.486275 0.000000
0.062745 0.486275 0.000000
0.101961 0.486275 0.000000
0.149020 0.486275 0.000000
0.227451 0.486275 0.000000
0.298039 0.486275 0.000000
0.392157 0.486275 0.000000
0.498039 0.486275 0.000000
0.580392 0.466667 0.000000
0.674510 0.462745 0.000000
0.768627 0.466667 0.000000
0.847059 0.454902 0.000000
0.878431 0.466667 0.000000
0.878431 0.462745 0.000000
0.000000 0.580392 0.000000
0.015686 0.580392 0.000000
0.035294 0.580392 0.000000
0.070588 0.580392 0.000000
0.109804 0.580392 0.000000
0.164706 0.580392 0.000000
0.215686 0.580392 0.000000
0.298039 0.580392 0.000000
0.392157 0.580392 0.000000
0.490196 0.580392 0.000000
0.584314 0.580392 0.000000
0.674510 0.560784 0.000000
0.768627 0.580392 0.000000
0.847059 0.580392 0.000000
0.878431 0.560784 0.000000
0.878431 0.560784 0.000000
0.000000 0.674510 0.000000
0.015686 0.674510 0.000000
0.031373 0.674510 0.000000
0.070588 0.674510 0.000000
0.101961 0.674510 0.000000
0.156863 0.674510 0.000000
0.215686 0.674510 0.000000
0.298039 0.674510 0.000000
0.407843 0.674510 0.000000
0.486275 0.674510 0.000000
0.588235 0.674510 0.000000
0.674510 0.674510 0.000000
0.768627 0.658824 0.000000
0.847059 0.670588 0.000000
0.878431 0.658824 0.000000
0.878431 0.670588 0.000000
0.000000 0.768627 0.000000
0.011765 0.768627 0.000000
0.035294 0.768627 0.000000
0.062745 0.768627 0.000000
0.101961 0.768627 0.000000
0.164706 0.768627 0.000000
0.227451 0.768627 0.000000
0.298039 0.768627 0.000000
0.388235 0.768627 0.000000
0.498039 0.768627 0.000000
0.584314 0.768627 0.000000
0.674510 0.768627 0.000000
0.784314 0.768627 0.000000
0.847059 0.749020 0.000000
0.878431 0.749020 0.000000
0.878431 0.737255 0.000000
0.000000 0.850980 0.000000
0.011765 0.850980 0.000000
0.031373 0.850980 0.000000
0.062745 0.850980 0.000000
0.101961 0.850980 0.000000
0.149020 0.850980 0.000000
0.215686 0.850980 0.000000
0.294118 0.850980 0.000000
0.411765 0.850980 0.000000
0.498039 0.850980 0.000000
0.600000 0.850980 0.000000
0.690196 0.850980 0.000000
0.780392 0.850980 0.000000
0.862745 0.850980 0.000000
0.878431 0.835294 0.000000
0.878431 0.827451 0.000000
0.000000 0.878431 0.000000
0.015686 0.878431 0.000000
0.035294 0.878431 0.000000
0.074510 0.878431 0.000000
0.117647 0.878431 0.000000
0.152941 0.878431 0.000000
0.223529 0.878431 0.000000
0.305882 0.878431 0.000000
0.396078 0.878431 0.000000
0.494118 0.878431 0.000000
0.600000 0.878431 0.000000
0.666667 0.878431 0.000000
0.764706 0.878431 0.000000
0.847059 0.878431 0.000000
0.878431 0.878431 0.000000
0.878431 0.878431 0.000000
0.000000 0.000000 0.003922
0.011765 0.000000 0.003922
0.031373 0.000000 0.003922
0.062745 0.000000 0.003922
0.101961 0.000000 0.003922
0.152941 0.000000 0.003922
0.215686 0.000000 0.003922
0.298039 0.000000 0.003922
0.392157 0.000000 0.003922
0.486275 0.000000 0.003922
0.580392 0.000000 0.003922
0.674510 0.000000 0.003922
0.768627 0.000000 0.003922
0.847059 0.000000 0.003922
0.878431 0.000000 0.003922
0.878431 0.000000 0.003922
0.000000 0.011765 0.003922
0.011765 0.011765 0.003922
0.035294 0.003922 0.003922
0.074510 0.003922 0.003922
0.121569 0.003922 0.003922
0.196078 0.000000 0.000000
0.274510 0.000000 0.000000
0.380392 0.000000 0.000000
0.474510 0.000000 0.000000
0.580392 0.000000 0.000000
0.674510 0.000000 0.000000
0.768627 0.000000 0.000000
0.847059 0.000000 0.000000
0.878431 0.000000 0.000000
0.878431 0.000000 0.000000
0.878431 0.011765 0.011765
0.000000 0.019608 0.003922
0.011765 0.027451 0.003922
0.035294 0.027451 0.003922
0.074510 0.019608 0.003922
0.121569 0.019608 0.003922
0.196078 0.015686 0.000000
0.274510 0.015686 0.000000
0.380392 0.015686 0.000000
0.474510 0.011765 0.000000
0.580392 0.011765 0.000000
0.674510 0.011765 0.000000
0.768627 0.011765 0.000000
0.847059 0.011765 0.000000
0.878431 0.011765 0.000000
0.878431 0.011765 0.000000
0.878431 0.027451 0.011765
0.000000 0.043137 0.003922
0.011765 0.047059 0.003922
0.031373 0.047059 0.003922
0.074510 0.047059 0.003922
0.121569 0.047059 0.003922
0.196078 0.043137 0.000000
0.274510 0.043137 0.000000
0.380392 0.035294 0.000000
0.474510 0.031373 0.000000
0.580392 0.031373 0.000000
0.674510 0.031373 0.000000
0.768627 0.027451 0.000000
0.847059 0.027451 0.000000
0.878431 0.027451 0.000000
0.878431 0.027451 0.000000
0.878431 0.043137 0.011765
0.000000 0.074510 0.011765
0.003922 0.090196 0.003922
0.027451 0.090196 0.003922
0.074510 0.090196 0.003922
0.121569 0.086275 0.003922
0.196078 0.086275 0.000000
0.274510 0.074510 0.000000
0.380392 0.070588 0.000000
0.474510 0.070588 0.000000
0.580392 0.062745 0.000000
0.674510 0.062745 0.000000
0.768627 0.050980 0.000000
0.847059 0.050980 0.000000
0.878431 0.047059 0.000000
0.878431 0.047059 0.000000
0.878431 0.074510 0.011765
0.000000 0.109804 0.003922
0.003922 0.137255 0.000000
0.027451 0.137255 0.000000
0.062745 0.137255 0.000000
0.117647 0.137255 0.000000
0.196078 0.137255 0.000000
0.274510 0.133333 0.000000
0.380392 0.121569 0.000000
0.474510 0.117647 0.000000
0.580392 0.105882 0.000000
0.674510 0.094118 0.000000
0.768627 0.105882 0.000000
0.847059 0.094118 0.000000
0.878431 0.094118 0.000000
0.878431 0.094118 0.000000
0.878431 0.109804 0.011765
0.000000 0.156863 0.003922
0.000000 0.207843 0.000000
0.027451 0.207843 0.000000
0.058824 0.207843 0.000000
0.109804 0.207843 0.000000
0.180392 0.207843 0.000000
0.274510 0.200000 0.000000
0.380392 0.192157 0.000000
0.474510 0.180392 0.000000
0.580392 0.164706 0.000000
0.674510 0.156863 0.000000
0.768627 0.156863 0.000000
0.847059 0.149020 0.000000
0.878431 0.137255 0.000000
0.878431 0.141176 0.000000
0.878431 0.156863 0.011765
0.000000 0.223529 0.003922
0.000000 0.294118 0.000000
0.019608 0.294118 0.000000
0.047059 0.294118 0.000000
0.101961 0.294118 0.000000
0.180392 0.294118 0.000000
0.274510 0.294118 0.000000
0.380392 0.282353 0.000000
0.474510 0.274510 0.000000
0.580392 0.262745 0.000000
0.674510 0.243137 0.000000
0.768627 0.227451 0.000000
0.847059 0.227451 0.000000
0.878431 0.215686 0.000000
0.878431 0.200000 0.000000
0.878431 0.215686 0.011765
0.000000 0.298039 0.003922
0.000000 0.388235 0.000000
0.015686 0.388235 0.000000
0.047059 0.388235 0.000000
0.094118 0.388235 0.000000
0.168627 0.388235 0.000000
0.262745 0.388235 0.000000
0.376471 0.388235 0.000000
0.474510 0.380392 0.000000
0.580392 0.356863 0.000000
0.674510 0.345098 0.000000
0.768627 0.321569 0.000000
0.847059 0.325490 0.000000
0.878431 0.294118 0.000000
0.878431 0.278431 0.000000
0.878431 0.294118 0.011765
0.000000 0.392157 0.011765
0.000000 0.486275 0.000000
0.015686 0.486275 0.000000
0.047059 0.486275 0.000000
0.090196 0.486275 0.000000
0.149020 0.486275 0.000000
0.247059 0.486275 0.000000
0.341176 0.486275 0.000000
0.447059 0.486275 0.000000
0.580392 0.466667 0.000000
0.674510 0.435294 0.000000
0.768627 0.439216 0.000000
0.847059 0.431373 0.000000
0.878431 0.407843 0.000000
0.878431 0.400000 0.000000
0.878431 0.380392 0.011765
0.000000 0.486275 0.003922
0.000000 0.580392 0.000000
0.015686 0.580392 0.000000
0.047059 0.580392 0.000000
0.086275 0.580392 0.000000
0.149020 0.580392 0.000000
0.239216 0.580392 0.000000
0.341176 0.580392 0.000000
0.435294 0.580392 0.000000
0.560784 0.580392 0.000000
0.674510 0.556863 0.000000
0.768627 0.549020 0.000000
0.847059 0.513725 0.000000
0.878431 0.533333 0.000000
0.878431 0.498039 0.000000
0.878431 0.466667 0.011765
0.000000 0.580392 0.011765
0.000000 0.674510 0.000000
0.015686 0.674510 0.000000
0.047059 0.674510 0.000000
0.090196 0.674510 0.000000
0.141176 0.674510 0.000000
0.215686 0.674510 0.000000
0.329412 0.674510 0.000000
0.427451 0.674510 0.000000
0.537255 0.674510 0.000000
0.674510 0.674510 0.000000
0.768627 0.658824 0.000000
0.847059 0.635294 0.000000
0.878431 0.631373 0.000000
0.878431 0.600000 0.000000
0.878431 0.556863 0.011765
0.000000 0.674510 0.003922
0.000000 0.768627 0.000000
0.015686 0.768627 0.000000
0.047059 0.768627 0.000000
0.090196 0.768627 0.000000
0.149020 0.768627 0.000000
0.227451 0.768627 0.000000
0.298039 0.768627 0.000000
0.411765 0.768627 0.000000
0.529412 0.768627 0.000000
0.647059 0.768627 0.000000
0.756863 0.768627 0.000000
0.847059 0.749020 0.000000
0.878431 0.749020 0.000000
0.878431 0.737255 0.000000
0.878431 0.658824 0.011765
0.000000 0.768627 0.003922
0.000000 0.850980 0.000000
0.015686 0.850980 0.000000
0.043137 0.850980 0.000000
0.086275 0.850980 0.000000
0.133333 0.850980 0.000000
0.215686 0.850980 0.000000
0.294118 0.850980 0.000000
0.407843 0.850980 0.000000
0.533333 0.850980 0.000000
0.631373 0.850980 0.000000
0.749020 0.850980 0.000000
0.835294 0.850980 0.000000
0.878431 0.835294 0.000000
0.878431 0.827451 0.000000
0.878431 0.749020 0.011765
0.000000 0.850980 0.003922
0.000000 0.878431 0.000000
0.015686 0.878431 0.000000
0.047059 0.878431 0.000000
0.086275 0.878431 0.000000
0.133333 0.878431 0.000000
0.223529 0.878431 0.000000
0.298039 0.878431 0.000000
0.396078 0.878431 0.000000
0.494118 0.878431 0.000000
0.631373 0.878431 0.000000
0.729412 0.878431 0.000000
0.819608 0.878431 0.000000
0.878431 0.878431 0.000000
0.878431 0.878431 0.000000
0.878431 0.831373 0.011765
0.000000 0.878431 0.011765
0.015686 0.878431 0.011765
0.035294 0.878431 0.011765
0.062745 0.878431 0.011765
0.101961 0.878431 0.011765
0.152941 0.878431 0.011765
0.215686 0.878431 0.011765
0.294118 0.878431 0.011765
0.380392 0.878431 0.011765
0.498039 0.878431 0.011765
0.600000 0.878431 0.011765
0.690196 0.878431 0.011765
0.780392 0.878431 0.011765
0.858824 0.878431 0.011765
0.878431 0.878431 0.011765
0.878431 0.878431 0.011765
0.000000 0.000000 0.019608
0.015686 0.000000 0.019608
0.031373 0.000000 0.019608
0.062745 0.000000 0.019608
0.101961 0.000000 0.019608
0.152941 0.000000 0.019608
0.215686 0.000000 0.019608
0.298039 0.000000 0.019608
0.392157 0.000000 0.019608
0.486275 0.000000 0.019608
0.580392 0.000000 0.019608
0.674510 0.000000 0.015686
0.768627 0.000000 0.019608
0.847059 0.000000 0.015686
0.878431 0.000000 0.019608
0.878431 0.000000 0.015686
0.000000 0.011765 0.019608
0.011765 0.003922 0.027451
0.035294 0.003922 0.019608
0.074510 0.003922 0.019608
0.121569 0.003922 0.015686
0.196078 0.000000 0.015686
0.274510 0.000000 0.015686
0.380392 0.000000 0.011765
0.474510 0.000000 0.011765
0.580392 0.000000 0.011765
0.674510 0.000000 0.011765
0.768627 0.000000 0.011765
0.847059 0.000000 0.003922
0.878431 0.000000 0.003922
0.878431 0.000000 0.011765
0.878431 0.011765 0.019608
0.000000 0.019608 0.019608
0.011765 0.027451 0.027451
0.031373 0.019608 0.019608
0.070588 0.019608 0.015686
0.117647 0.015686 0.015686
0.180392 0.015686 0.015686
0.266667 0.015686 0.011765
0.360784 0.011765 0.011765
0.470588 0.011765 0.011765
0.584314 0.011765 0.003922
0.690196 0.003922 0.003922
0.796078 0.003922 0.003922
0.878431 0.003922 0.000000
0.878431 0.000000 0.000000
0.878431 0.011765 0.011765
0.878431 0.027451 0.019608
0.000000 0.043137 0.019608
0.011765 0.047059 0.019608
0.027451 0.047059 0.015686
0.070588 0.047059 0.015686
0.117647 0.043137 0.015686
0.180392 0.035294 0.015686
0.266667 0.035294 0.011765
0.360784 0.031373 0.011765
0.470588 0.031373 0.011765
0.584314 0.027451 0.003922
0.690196 0.019608 0.003922
0.796078 0.019608 0.003922
0.878431 0.015686 0.000000
0.878431 0.015686 0.000000
0.878431 0.027451 0.011765
0.878431 0.043137 0.019608
0.000000 0.074510 0.019608
0.003922 0.090196 0.015686
0.027451 0.086275 0.015686
0.062745 0.086275 0.015686
0.117647 0.086275 0.015686
0.180392 0.074510 0.015686
0.266667 0.074510 0.011765
0.360784 0.070588 0.011765
0.470588 0.062745 0.011765
0.584314 0.058824 0.003922
0.690196 0.047059 0.003922
0.796078 0.047059 0.003922
0.878431 0.043137 0.000000
0.878431 0.035294 0.000000
0.878431 0.050980 0.011765
0.878431 0.070588 0.019608
0.000000 0.109804 0.019608
0.003922 0.137255 0.015686
0.019608 0.133333 0.015686
0.058824 0.133333 0.015686
0.109804 0.133333 0.015686
0.180392 0.125490 0.015686
0.266667 0.125490 0.011765
0.360784 0.109804 0.011765
0.470588 0.105882 0.011765
0.584314 0.105882 0.003922
0.690196 0.101961 0.003922
0.796078 0.090196 0.003922
0.878431 0.078431 0.000000
0.878431 0.074510 0.000000
0.878431 0.086275 0.011765
0.878431 0.101961 0.019608
0.000000 0.156863 0.019608
0.000000 0.207843 0.015686
0.019608 0.200000 0.011765
0.050980 0.200000 0.011765
0.101961 0.200000 0.011765
0.172549 0.200000 0.011765
0.266667 0.196078 0.011765
0.360784 0.192157 0.011765
0.470588 0.172549 0.011765
0.584314 0.164706 0.003922
0.690196 0.156863 0.003922
0.796078 0.137255 0.003922
0.878431 0.141176 0.000000
0.878431 0.125490 0.000000
0.878431 0.137255 0.011765
0.878431 0.156863 0.019608
0.000000 0.223529 0.019608
0.000000 0.294118 0.011765
0.015686 0.278431 0.011765
0.047059 0.278431 0.011765
0.094118 0.278431 0.011765
0.164706 0.278431 0.011765
0.254902 0.278431 0.011765
0.360784 0.274510 0.011765
0.470588 0.262745 0.011765
0.584314 0.254902 0.003922
0.690196 0.231373 0.003922
0.796078 0.223529 0.003922
0.878431 0.215686 0.000000
0.878431 0.207843 0.000000
0.878431 0.200000 0.011765
0.878431 0.215686 0.019608
0.000000 0.298039 0.019608
0.000000 0.388235 0.011765
0.015686 0.380392 0.011765
0.043137 0.380392 0.011765
0.086275 0.380392 0.011765
0.149020 0.380392 0.011765
0.254902 0.380392 0.011765
0.356863 0.380392 0.011765
0.470588 0.364706 0.011765
0.584314 0.356863 0.003922
0.690196 0.352941 0.003922
0.796078 0.337255 0.003922
0.878431 0.309804 0.000000
0.878431 0.305882 0.000000
0.878431 0.294118 0.011765
0.878431 0.282353 0.019608
0.000000 0.392157 0.019608
0.000000 0.486275 0.011765
0.011765 0.490196 0.003922
0.035294 0.490196 0.003922
0.078431 0.490196 0.003922
0.141176 0.490196 0.003922
0.243137 0.490196 0.003922
0.345098 0.490196 0.003922
0.466667 0.490196 0.003922
0.584314 0.470588 0.003922
0.690196 0.462745 0.003922
0.796078 0.450980 0.003922
0.878431 0.415686 0.000000
0.878431 0.419608 0.000000
0.878431 0.380392 0.011765
0.878431 0.360784 0.019608
0.000000 0.486275 0.019608
0.000000 0.580392 0.011765
0.011765 0.592157 0.003922
0.031373 0.592157 0.003922
0.078431 0.592157 0.003922
0.137255 0.592157 0.003922
0.215686 0.592157 0.003922
0.337255 0.592157 0.003922
0.439216 0.592157 0.003922
0.560784 0.592157 0.003922
0.690196 0.584314 0.003922
0.796078 0.556863 0.003922
0.878431 0.560784 0.000000
0.878431 0.552941 0.000000
0.878431 0.498039 0.011765
0.878431 0.470588 0.019608
0.000000 0.580392 0.019608
0.000000 0.674510 0.011765
0.003922 0.709804 0.003922
0.031373 0.709804 0.003922
0.074510 0.709804 0.003922
0.125490 0.709804 0.003922
0.211765 0.709804 0.003922
0.321569 0.709804 0.003922
0.439216 0.709804 0.003922
0.549020 0.709804 0.003922
0.686275 0.709804 0.003922
0.796078 0.686275 0.003922
0.878431 0.682353 0.000000
0.878431 0.647059 0.000000
0.878431 0.623529 0.011765
0.878431 0.556863 0.019608
0.000000 0.674510 0.019608
0.000000 0.768627 0.011765
0.003922 0.803922 0.000000
0.027451 0.803922 0.000000
0.074510 0.803922 0.000000
0.121569 0.803922 0.000000
0.200000 0.803922 0.000000
0.294118 0.803922 0.000000
0.427451 0.803922 0.000000
0.541176 0.803922 0.000000
0.666667 0.803922 0.000000
0.800000 0.803922 0.000000
0.878431 0.796078 0.000000
0.878431 0.776471 0.000000
0.878431 0.717647 0.011765
0.878431 0.647059 0.019608
0.000000 0.768627 0.015686
0.000000 0.850980 0.003922
0.003922 0.878431 0.000000
0.027451 0.878431 0.000000
0.062745 0.878431 0.000000
0.121569 0.878431 0.000000
0.200000 0.878431 0.000000
0.305882 0.878431 0.000000
0.396078 0.878431 0.000000
0.525490 0.878431 0.000000
0.654902 0.878431 0.000000
0.776471 0.878431 0.000000
0.878431 0.878431 0.000000
0.878431 0.878431 0.000000
0.878431 0.831373 0.011765
0.878431 0.756863 0.019608
0.000000 0.850980 0.019608
0.000000 0.878431 0.011765
0.015686 0.878431 0.011765
0.043137 0.878431 0.011765
0.074510 0.878431 0.011765
0.133333 0.878431 0.011765
0.196078 0.878431 0.011765
0.294118 0.878431 0.011765
0.380392 0.878431 0.011765
0.498039 0.878431 0.011765
0.631373 0.878431 0.011765
0.721569 0.878431 0.011765
0.835294 0.878431 0.011765
0.878431 0.878431 0.011765
0.878431 0.878431 0.011765
0.878431 0.839216 0.019608
0.000000 0.878431 0.027451
0.015686 0.878431 0.019608
0.035294 0.878431 0.019608
0.058824 0.878431 0.019608
0.109804 0.878431 0.019608
0.156863 0.878431 0.019608
0.215686 0.878431 0.019608
0.313725 0.878431 0.019608
0.396078 0.878431 0.019608
0.486275 0.878431 0.019608
0.576471 0.878431 0.019608
0.686275 0.878431 0.019608
0.772549 0.878431 0.019608
0.843137 0.878431 0.019608
0.878431 0.878431 0.019608
0.878431 0.878431 0.019608
0.000000 0.000000 0.043137
0.011765 0.000000 0.043137
0.035294 0.000000 0.043137
0.062745 0.000000 0.043137
0.101961 0.000000 0.035294
0.152941 0.000000 0.035294
0.215686 0.000000 0.043137
0.298039 0.000000 0.043137
0.392157 0.000000 0.035294
0.486275 0.000000 0.043137
0.580392 0.000000 0.035294
0.674510 0.000000 0.035294
0.768627 0.000000 0.035294
0.847059 0.000000 0.035294
0.878431 0.000000 0.043137
0.878431 0.000000 0.035294
0.000000 0.011765 0.043137
0.011765 0.003922 0.047059
0.035294 0.003922 0.047059
0.074510 0.003922 0.047059
0.121569 0.003922 0.043137
0.196078 0.000000 0.043137
0.274510 0.000000 0.035294
0.380392 0.000000 0.031373
0.474510 0.000000 0.031373
0.580392 0.000000 0.027451
0.674510 0.000000 0.027451
0.768627 0.000000 0.027451
0.847059 0.000000 0.027451
0.878431 0.000000 0.027451
0.878431 0.000000 0.027451
0.878431 0.011765 0.043137
0.000000 0.019608 0.043137
0.011765 0.019608 0.047059
0.027451 0.019608 0.047059
0.070588 0.019608 0.043137
0.117647 0.015686 0.043137
0.180392 0.015686 0.035294
0.266667 0.015686 0.031373
0.360784 0.011765 0.031373
0.470588 0.011765 0.027451
0.584314 0.011765 0.027451
0.690196 0.003922 0.019608
0.796078 0.003922 0.015686
0.878431 0.003922 0.015686
0.878431 0.000000 0.011765
0.878431 0.011765 0.019608
0.878431 0.027451 0.035294
0.000000 0.043137 0.043137
0.011765 0.047059 0.047059
0.027451 0.047059 0.047059
0.062745 0.043137 0.043137
0.109804 0.035294 0.035294
0.168627 0.035294 0.035294
0.254902 0.031373 0.031373
0.352941 0.031373 0.027451
0.450980 0.027451 0.027451
0.564706 0.027451 0.019608
0.682353 0.019608 0.019608
0.780392 0.019608 0.015686
0.870588 0.015686 0.015686
0.878431 0.015686 0.015686
0.878431 0.027451 0.019608
0.878431 0.047059 0.043137
0.000000 0.074510 0.043137
0.003922 0.090196 0.043137
0.027451 0.086275 0.043137
0.058824 0.078431 0.035294
0.109804 0.074510 0.035294
0.168627 0.074510 0.035294
0.254902 0.070588 0.031373
0.352941 0.062745 0.027451
0.450980 0.058824 0.027451
0.564706 0.050980 0.019608
0.682353 0.047059 0.019608
0.780392 0.043137 0.015686
0.870588 0.035294 0.015686
0.878431 0.035294 0.015686
0.878431 0.043137 0.019608
0.878431 0.070588 0.043137
0.000000 0.109804 0.035294
0.003922 0.137255 0.043137
0.019608 0.133333 0.035294
0.050980 0.121569 0.035294
0.101961 0.121569 0.035294
0.168627 0.121569 0.035294
0.254902 0.117647 0.031373
0.352941 0.109804 0.027451
0.450980 0.105882 0.027451
0.564706 0.094118 0.019608
0.682353 0.090196 0.019608
0.780392 0.078431 0.015686
0.870588 0.074510 0.015686
0.878431 0.070588 0.015686
0.878431 0.078431 0.019608
0.878431 0.109804 0.043137
0.000000 0.156863 0.043137
0.000000 0.207843 0.035294
0.019608 0.200000 0.035294
0.047059 0.192157 0.031373
0.094118 0.192157 0.031373
0.164706 0.192157 0.031373
0.254902 0.184314 0.031373
0.352941 0.180392 0.027451
0.450980 0.164706 0.027451
0.564706 0.156863 0.019608
0.682353 0.149020 0.019608
0.780392 0.141176 0.015686
0.870588 0.133333 0.015686
0.878431 0.117647 0.015686
0.878431 0.125490 0.019608
0.878431 0.152941 0.043137
0.000000 0.223529 0.043137
0.000000 0.294118 0.031373
0.015686 0.278431 0.031373
