luts/1.CUBE
#Created by www.Photopea.com
TITLE "1.psd"
#LUT size
LUT_3D_SIZE 6
#data domain
DOMAIN_MIN 0.0 0.0 0.0
DOMAIN_MAX 1.0 1.0 1.0
#LUT data points
0.000000 0.000000 0.000000
0.062745 0.000000 0.000000
0.215686 0.000000 0.000000
0.486275 0.000000 0.000000
0.768627 0.000000 0.000000
0.878431 0.000000 0.000000
0.000000 0.043137 0.000000
0.062745 0.043137 0.000000
0.215686 0.043137 0.000000
0.486275 0.043137 0.000000
0.768627 0.035294 0.000000
0.878431 0.043137 0.000000
0.000000 0.156863 0.000000
0.062745 0.156863 0.000000
0.215686 0.156863 0.000000
0.486275 0.156863 0.000000
0.768627 0.156863 0.000000
0.878431 0.164706 0.000000
0.000000 0.392157 0.000000
0.062745 0.392157 0.000000
0.231373 0.392157 0.000000
0.486275 0.380392 0.000000
0.768627 0.392157 0.000000
0.878431 0.364706 0.000000
0.000000 0.674510 0.000000
0.070588 0.674510 0.000000
0.215686 0.674510 0.000000
0.486275 0.674510 0.000000
0.768627 0.658824 0.000000
0.878431 0.670588 0.000000
0.000000 0.878431 0.000000
0.074510 0.878431 0.000000
0.223529 0.878431 0.000000
0.494118 0.878431 0.000000
0.764706 0.878431 0.000000
0.878431 0.878431 0.000000
0.000000 0.000000 0.043137
0.062745 0.000000 0.043137
0.215686 0.000000 0.043137
0.486275 0.000000 0.043137
0.768627 0.000000 0.035294
0.878431 0.000000 0.035294
0.000000 0.043137 0.043137
0.062745 0.043137 0.043137
0.254902 0.031373 0.031373
0.564706 0.027451 0.019608
0.870588 0.015686 0.015686
0.878431 0.047059 0.043137
0.000000 0.156863 0.043137
0.047059 0.192157 0.031373
0.254902 0.184314 0.031373
0.564706 0.156863 0.019608
0.870588 0.133333 0.015686
0.878431 0.152941 0.043137
0.000000 0.392157 0.043137
0.035294 0.466667 0.019608
0.215686 0.466667 0.019608
0.564706 0.454902 0.019608
0.870588 0.415686 0.015686
0.878431 0.380392 0.043137
0.000000 0.674510 0.043137
0.027451 0.796078 0.015686
0.192157 0.796078 0.015686
0.537255 0.796078 0.015686
0.870588 0.780392 0.015686
0.878431 0.674510 0.043137
0.000000 0.878431 0.035294
0.062745 0.878431 0.043137
0.227451 0.878431 0.043137
0.470588 0.878431 0.043137
0.768627 0.878431 0.043137
0.878431 0.878431 0.043137
0.000000 0.000000 0.164706
0.070588 0.000000 0.164706
0.215686 0.000000 0.156863
0.486275 0.000000 0.156863
0.768627 0.000000 0.156863
0.878431 0.000000 0.164706
0.000000 0.043137 0.164706
0.047059 0.031373 0.192157
0.254902 0.031373 0.192157
0.564706 0.027451 0.156863
0.870588 0.015686 0.137255
0.878431 0.047059 0.156863
0.000000 0.156863 0.164706
0.047059 0.184314 0.192157
0.215686 0.156863 0.164706
0.525490 0.133333 0.137255
0.839216 0.117647 0.117647
0.878431 0.164706 0.164706
0.000000 0.392157 0.156863
0.035294 0.466667 0.156863
0.192157 0.419608 0.137255
0.525490 0.415686 0.137255
0.839216 0.380392 0.117647
0.878431 0.388235 0.164706
0.000000 0.674510 0.156863
0.027451 0.796078 0.137255
0.156863 0.752941 0.117647
0.470588 0.752941 0.117647
0.839216 0.745098 0.117647
0.878431 0.666667 0.164706
0.000000 0.878431 0.164706
0.062745 0.878431 0.168627
0.223529 0.878431 0.164706
0.474510 0.878431 0.164706
0.776471 0.878431 0.164706
0.878431 0.878431 0.164706
0.000000 0.000000 0.380392
0.062745 0.000000 0.380392
0.231373 0.000000 0.380392
0.486275 0.000000 0.372549
0.768627 0.000000 0.356863
0.878431 0.000000 0.360784
0.000000 0.043137 0.380392
0.035294 0.027451 0.454902
0.231373 0.027451 0.454902
0.564706 0.027451 0.447059
0.870588 0.015686 0.415686
0.878431 0.047059 0.372549
0.000000 0.156863 0.380392
0.035294 0.156863 0.454902
0.192157 0.133333 0.415686
0.525490 0.133333 0.415686
0.839216 0.117647 0.372549
0.878431 0.164706 0.376471
0.000000 0.380392 0.380392
0.035294 0.454902 0.454902
0.192157 0.415686 0.415686
0.427451 0.329412 0.321569
0.796078 0.305882 0.298039
0.878431 0.329412 0.321569
0.000000 0.674510 0.380392
0.027451 0.796078 0.415686
0.156863 0.752941 0.372549
0.400000 0.694118 0.298039
0.796078 0.690196 0.298039
0.878431 0.643137 0.321569
0.000000 0.878431 0.360784
0.062745 0.878431 0.372549
0.223529 0.878431 0.376471
0.427451 0.878431 0.321569
0.749020 0.878431 0.321569
0.878431 0.878431 0.321569
0.000000 0.000000 0.643137
0.070588 0.000000 0.643137
0.239216 0.000000 0.643137
0.486275 0.000000 0.643137
0.768627 0.000000 0.631373
0.878431 0.000000 0.639216
0.000000 0.035294 0.643137
0.027451 0.015686 0.756863
0.192157 0.015686 0.756863
0.537255 0.015686 0.756863
0.870588 0.015686 0.745098
0.878431 0.047059 0.615686
0.000000 0.156863 0.643137
0.027451 0.133333 0.756863
0.156863 0.117647 0.721569
0.494118 0.117647 0.721569
0.839216 0.117647 0.713725
0.878431 0.164706 0.635294
0.000000 0.392157 0.643137
0.027451 0.415686 0.756863
0.156863 0.380392 0.721569
0.400000 0.305882 0.666667
0.796078 0.305882 0.658824
0.878431 0.325490 0.603922
0.000000 0.658824 0.643137
0.027451 0.780392 0.756863
0.156863 0.745098 0.721569
0.352941 0.674510 0.639216
0.713725 0.576471 0.529412
0.878431 0.576471 0.529412
0.000000 0.878431 0.639216
0.062745 0.878431 0.643137
0.223529 0.878431 0.635294
0.380392 0.878431 0.580392
0.713725 0.878431 0.529412
0.878431 0.878431 0.529412
0.000000 0.000000 0.878431
0.074510 0.000000 0.878431
0.223529 0.000000 0.878431
0.494118 0.000000 0.878431
0.764706 0.000000 0.878431
0.878431 0.000000 0.866667
0.000000 0.043137 0.878431
0.062745 0.047059 0.878431
0.227451 0.047059 0.878431
0.498039 0.047059 0.878431
0.768627 0.047059 0.878431
0.878431 0.047059 0.866667
0.000000 0.164706 0.878431
0.062745 0.152941 0.878431
0.223529 0.164706 0.878431
0.474510 0.164706 0.878431
0.776471 0.164706 0.878431
0.878431 0.164706 0.866667
0.000000 0.364706 0.878431
0.062745 0.380392 0.878431
0.223529 0.388235 0.878431
0.419608 0.325490 0.878431
0.756863 0.325490 0.878431
0.878431 0.325490 0.870588
0.000000 0.670588 0.878431
0.062745 0.674510 0.878431
0.223529 0.666667 0.878431
0.380392 0.611765 0.878431
0.709804 0.560784 0.878431
0.878431 0.560784 0.870588
0.000000 0.878431 0.878431
0.062745 0.878431 0.878431
0.223529 0.878431 0.878431
0.380392 0.878431 0.878431
0.690196 0.878431 0.878431
0.878431 0.878431 0.878431
